X:91
T: Der schwatzhafte Junggeselle
N: Q0139F
O: Mitteleuropa, Deutschland (BRD) , Hessen, Oberwesterwald,
R: Ballade, Indiskretion, verweigerter Beischlaf
M: 4/4
L: 1/16
K: G
D4 | G4F2E2D4G4 | A4G4z4
D4 | G4F2E2D4G4 | A4G4z4
B4 | B3BB3BB3Az2B2 | B3Bd3BA4z2
G2 | F3AA2A2A3dc4 | B3BA3AG4
